X:1
T:I Want to Be a Worker
T:I Want to Be a Worker
T:Isaiah Baltzell
T:Isaiah Baltzell, 1880
T:Public Domain Courtesy of the Cyber Hymnal™
T:Public Domain Courtesy of the Cyber Hymnal™
C:Isaiah Baltzell
Z:Public Domain
Z:Courtesy of the Cyber Hymnal™
%%score ( 1 2 ) ( 3 4 )
L:1/8
Q:1/4=110
M:4/4
K:Ab
V:1 treble 
V:2 treble 
V:3 bass 
V:4 bass 
V:1
 [CE]2 | [CA][CA][CA][DB] [Ec][Ec][DB][CA] | [EB]6 E2 | [EB][EB][EB][Ec] [Ed][Ed][Ec][EB] | %4
w: 1.~I|want to be a work- er for the|Lord, I|want to love and trust His ho- ly|
w: 2.~I|want to be a work- er ev- ery|day, I|want to lead the err- ing in the|
w: 3.~I|want to be a work- er strong and|brave, I|want to trust in Je- sus’ pow’r to|
w: 4.~I|want to be a work- er; help me,|Lord, To|lead the lost and err- ing to Thy|
 [Ec]6 ([Ac][Ad]) | [Ae][Ae][Ec][DB] [CA]2 ([DB][Ec]) | [Fd][Fd][DF][DF] [FB]2 [FA][DF] | %7
w: Word, I *|want to sing and pray, Be *|bus- y ev- ery day In the|
w: way That *|leads to Heav’n a- bove, Where *|all is peace and love, In the|
w: save; All *|who will tru- ly come Shall *|find a hap- py home In the|
w: Word, That *|points to joys on high Where *|plea- sures ne- ver die, In the|
 [CE]2 [EA]2 [Ac]2 [EB]2 | [EA]6 ||"^Refrain" [Ae]>[Fd] | [Ec]6 [Ae]>[Ac] | [EA]6 [CA]>[DB] | %12
w: vine- yard of the|Lord||||
w: vine- yard of the|Lord.|I will|work, I will|pray, In the|
w: vine- yard of the|Lord.||||
w: vine- yard of the|Lord.||||
 [Ec][Ec][Ec][Ec] [Ee][Ec][EB][FA] | [GB]6 [Ac]>[Ad] | [Ae]2 [Ec]>[DB] [CA]2 [DB][Ec] | %15
w: |||
w: vine- yard, in the vine- yard of the|Lord. I will|work, I will pray. I will|
w: |||
w: |||
 [Fd]>[Ec] [Fd][DF] [FB]2 [FA][DF] | [CE]2 [EA]2 [Ac]2 [EB]2 | [EA]6 |] %18
w: |||
w: la- bor ev- ery day, in the|vine- yard of the|Lord.|
w: |||
w: |||
V:2
 x2 | x8 | x6 E2 | x8 | x8 | x8 | x8 | x8 | x6 || x2 | x8 | x8 | x8 | x8 | x8 | x8 | x8 | x6 |] %18
V:3
 A,2 | A,A,A,A, A,A,A,A, | [E,G,]6 [E,G,]2 | [E,G,][E,G,][E,G,][E,A,] [E,B,][E,B,][E,A,][E,G,] | %4
 A,6 A,[A,B,] | [A,C][A,C]A,A, A,2 A,A, | [D,A,][D,A,][D,A,][D,A,] [D,D]2 [D,D][D,A,] | %7
 [E,A,]2 [E,C]2 [E,E]2 [E,D]2 | [A,,C]6 || [A,C]>A, | A,2 A,2 A,2 [A,C]>[A,E] | %11
 ([A,C]2 [A,C]2 [A,C]2) A,>A, | A,A,A,A, [A,C]A,[G,B,][F,C] | %13
 ([E,E]2 [E,E]>[E,E] [E,E]2) A,>[A,B,] | [A,C]2 A,>A, A,2 A,A, | %15
 [D,A,]>[D,A,] [D,A,][D,A,] [D,D]2 [D,D][D,A,] | [E,A,]2 [E,C]2 [E,E]2 [E,D]2 | [A,,C]6 |] %18
V:4
 A,2 | A,A,A,A, A,A,A,A, | x8 | x8 | A,6 A, x | x2 A,A, A,2 (A,A,) | x8 | x8 | x6 || x3/2 A,/ | %10
 (A,2 A,2 A,2) x2 | x6 A,>A, | A,A,A,A, A, x3 | x6 A,3/2 x/ | x2 A,>A, A,2 A,A, | x8 | x8 | x6 |] %18

